!!!OTL: GUTE NACHT MEINE WALLFAHRT IST VOLLBRACHT
!!!ARE: Europa, Mitteleuropa, Deutschland
!!!SCT: F1066
!!!YEM: Copyright 1995, estate of Helmut Schaffrath.
**kern
*ICvox
*Ivox
*M4/4
*k[f#c#g#d#]
*E:
=1
{2.b
4d#
=2
2e
4r}
{8.e
16e
=3
4.a
8cc#
4ee
8dd#
8cc#
=4
2b
4r}
{8.b
16b
=5
4.b
8b
4b
8cc#
8dd#
=6
8.ee
16b
4b
4r}
{8.b
16b
=7
4.b
8dd#
8ff#
8dd#
8b
8a
=8
8a
8g#
4g#
2r}
=9
{4.ee
8g#
8.e
16e
8.ddn
16ddn
=10
2cc#
2r}
=11
{2.b
4a
=12
2g#
2r
=13
2.b
4d#
=14
2e
2r}
==
!!!AGN: Trost - Lied
!!!ONB: ESAC (Essen Associative Code) Database: FINK
!!!AMT: simple quadruple
!!!AIN: vox
!!!EED: Helmut Schaffrath
!!!EEV: 1.0
*-
